assets/img/gm-full.svg

<svg fill="none" height="292" viewBox="0 0 297 292" width="297" xmlns="http://www.w3.org/2000/svg"><g fill="#fff"><path d="m19.0942 125.988.7099 4.807c1.0375 7.024 6.5533 12.54 13.5777 13.577l4.8065.71-4.8065.71c-7.0244 1.038-12.5402 6.554-13.5777 13.578l-.7099 4.807-.71-4.807c-1.0375-7.024-6.5533-12.54-13.57766-13.578l-4.80654-.71 4.80654-.71c7.02436-1.037 12.54016-6.553 13.57766-13.577z"/><path d="m277.906 128.341.71 4.806c1.037 7.025 6.553 12.541 13.578 13.578l4.806.71-4.806.71c-7.025 1.037-12.541 6.553-13.578 13.578l-.71 4.806-.71-4.806c-1.038-7.025-6.553-12.541-13.578-13.578l-4.806-.71 4.806-.71c7.025-1.037 12.54-6.553 13.578-13.578z"/><g clip-rule="evenodd" fill-rule="evenodd"><path d="m131.678 3.95282 12.315-1.51514 3.1 25.19282-7.785.9578-.88-7.1474c-.422-3.4321-.757-6.4441-1.007-9.646-.082 1.0876-.195 2.215-.357 3.5279l-1.543 13.7314-6.511.801-4.897-12.9389c-.431-1.1682-.805-2.1638-1.14-3.1284.525 3.0963.922 6.0287 1.335 9.3901l.88 7.1474-7.785.9579-3.1-25.19287 12.315-1.51511 3.157 9.30968c.334.9646.633 1.9336.971 2.9335.051-1.0479.106-2.0604.197-3.0772zm-29.491 19.06938c3.588 7.6099 1.607 13.2732-5.9395 16.8305l-10.7389 5.0623-10.8251-22.9586 10.8357-5.108c7.4818-3.5269 13.0795-1.4361 16.6678 6.1738zm-14.2609.1012-3.0959 1.4593 5.1084 10.8345 3.096-1.4594c2.9991-1.4138 3.4759-3.4121 1.6058-7.3783-1.8701-3.9661-3.7152-4.87-6.7143-3.4561zm-12.2795 12.8637c5.0746 6.3954 3.9365 13.8514-2.2642 18.7704-6.2285 4.9411-13.7209 4.3319-18.7955-2.0635-5.0525-6.3674-3.9144-13.8235 2.2862-18.7425 6.2007-4.919 13.721-4.3319 18.7735 2.0356zm-14.5187 3.3266c-2.3462 1.8612-2.8196 4.6487-.0053 8.1954 2.8365 3.5747 5.6589 3.7476 8.0051 1.8863 2.3462-1.8612 2.8196-4.6487-.0169-8.2234-2.8143-3.5467-5.6368-3.7196-7.9829-1.8583zm-7.5003 35.3253c-4.9012 6.2597-12.3285 7.4179-18.7574 2.3855-6.4007-5.0106-7.0366-12.526-2.1573-18.7577 4.8792-6.2315 12.3285-7.4179 18.7292-2.4074 6.4289 5.0325 7.0647 12.5479 2.1855 18.7796zm-15.5246-12.1528c-1.8462 2.3579-1.6551 5.1788 1.9102 7.9698 3.5935 2.8129 6.3781 2.3215 8.2243-.0364s1.655-5.1788-1.9383-7.9917c-3.5654-2.791-6.35-2.2996-8.1962.0583zm-13.0772 24.8912c-1.6908.0137-3.037 1.1634-3.8053 2.8505-1.3149 2.8876-.3281 5.4521 3.6954 7.2839 4.2183 1.9205 6.7889 1.0931 8.2368-2.0865 1.0638-2.336.7137-4.0622-.8374-5.4735l-1.9502 4.2827-4.9322-2.2454 5.2598-11.5502c.8379.2248 1.6462.5144 2.4249.8689 6.8141 3.1023 9.2557 10.1287 6.0053 17.2665-3.2061 7.0407-10.2335 9.9127-17.6642 6.5297-7.3657-3.354-9.9107-10.1528-6.4387-17.7773 2.9549-6.4889 7.9756-8.8253 13.5517-7.736zm234.5122 4.1968 9.698 3.7467c1.948.7692 3.929 1.5255 5.948 2.3813-.8-1.9457-1.6-3.8913-2.366-5.85l-1.728-4.4154 6.441-2.5205 7.926 20.2507-5.644 2.209-9.922-3.927c-1.901-.749-3.862-1.552-5.861-2.454.826 2.012 1.638 3.991 2.431 6.016l1.962 5.013-6.541 2.56-8.121-20.749zm-220.9594 110.7728-9.7888-3.503c-1.9661-.72-3.965-1.426-6.0053-2.231.8482 1.925 1.6965 3.85 2.5119 5.789l1.8381 4.37-6.3761 2.681-8.4303-20.046 5.5873-2.349 10.0169 3.678c1.9194.701 3.8993 1.454 5.9206 2.306-.8759-1.991-1.7379-3.949-2.581-5.954l-2.0868-4.962 6.4746-2.722 8.6375 20.539zm15.0955 11.603-7.9701 5.461-7.9713 16.181-4.9179-7.175 1.7197-3.167c1.0238-1.911 1.9811-3.605 3.0082-5.259-1.8735.419-3.7379.789-5.83 1.142l-3.4934.579-4.8575-7.087 17.7871-1.859 7.9701-5.462zm1.5882 29.516 1.7421-1.787-8.4505-8.237 4.6539-4.774 8.4504 8.237 1.6675-1.71-9.1398-8.909 4.828-4.952 14.9097 14.532-17.7195 18.176-14.9097-14.532 4.8281-4.953zm26.9888-1.751-.3644 11.036 4.468-1.391 3.1857-5.029 6.8075 4.31-13.5823 21.444-6.8075-4.31 5.3223-8.403-11.9791 4.187-7.8616-4.978 13.0514-4.015-.0114-17.772zm24.6579 12.981 2.05 10.283c.343 1.709.633 3.247.844 4.795.894-2.86 1.819-5.596 2.896-8.656l1.373-3.901 7.399 2.604-8.428 23.943-7.903-2.782-1.949-10.247c-.29-1.538-.529-3.437-.735-5.323-.952 3.028-1.959 5.887-3.1068 9.149l-1.373 3.9-7.399-2.603 8.4281-23.943zm15.332 18.402c.868-8.118 6.908-12.635 14.779-11.794 7.905.845 12.819 6.532 11.952 14.65-.864 8.082-6.905 12.599-14.775 11.758s-12.819-6.532-11.956-14.614zm12.684 7.808c2.978.318 5.27-1.337 5.751-5.839.485-4.537-1.406-6.639-4.384-6.957s-5.27 1.337-5.755 5.874c-.481 4.502 1.41 6.604 4.388 6.922zm25.41-18.576 1.057 7.123c.507 3.421.916 6.424 1.246 9.618.054-1.089.139-2.219.268-3.535l1.203-13.766 6.489-.962 5.216 12.813c.46 1.158.859 2.144 1.217 3.1-.601-3.083-1.071-6.004-1.568-9.354l-1.056-7.124 7.759-1.15 3.724 25.108-12.274 1.819-3.387-9.228c-.358-.956-.681-1.917-1.044-2.908-.025 1.048-.054 2.062-.12 3.081l-.492 9.803-12.273 1.82-3.724-25.107zm37.249 4.639c-3.777-7.518-1.939-13.229 5.517-16.974l10.609-5.33 11.396 22.682-10.705 5.377c-7.391 3.713-13.04 1.763-16.817-5.755zm14.254-.458 3.058-1.536-5.377-10.704-3.059 1.537c-2.963 1.488-3.39 3.498-1.421 7.416s3.836 4.775 6.799 3.287zm11.951-13.165c-5.232-6.267-4.278-13.749 1.799-18.82 6.104-5.093 13.609-4.669 18.84 1.598 5.208 6.241 4.255 13.722-1.822 18.793s-13.609 4.67-18.817-1.571zm14.431-3.684c2.299-1.919 2.704-4.717-.197-8.193-2.924-3.503-5.75-3.606-8.049-1.688-2.3 1.919-2.704 4.717.22 8.221 2.901 3.476 5.727 3.579 8.026 1.66zm6.625-35.499c4.745-6.378 12.141-7.72 18.692-2.848 6.523 4.851 7.345 12.348 2.621 18.698-4.724 6.351-12.141 7.721-18.664 2.87-6.551-4.872-7.373-12.369-2.649-18.72zm15.82 11.766c1.787-2.403 1.527-5.218-2.107-7.92-3.661-2.724-6.433-2.164-8.22.239-1.788 2.403-1.527 5.218 2.135 7.942 3.633 2.702 6.405 2.141 8.192-.261zm12.457-25.211c1.69-.056 3.007-1.239 3.733-2.945 1.243-2.92.192-5.459-3.876-7.189-4.265-1.815-6.814-.924-8.182 2.291-1.005 2.362-.612 4.079.974 5.451l1.843-4.33 4.986 2.121-4.969 11.678c-.844-.203-1.659-.473-2.446-.808-6.89-2.931-9.506-9.894-6.435-17.111 3.029-7.118 9.983-10.165 17.496-6.968 7.447 3.168 10.161 9.902 6.88 17.61-2.792 6.561-7.752 9.022-13.354 8.072zm-28.387-121.1192 8.103-5.2618 8.371-15.9772 4.738 7.2951-1.798 3.1228c-1.071 1.8856-2.07 3.5546-3.138 5.1831 1.884-.3729 3.757-.6964 5.857-.9974l3.506-.4917 4.68 7.2055-17.827 1.4168-8.104 5.2618zm-.86-29.5486-1.785 1.7435 8.245 8.4424-4.77 4.6575-8.245-8.4424-1.709 1.6688 8.917 9.131-4.949 4.8319-14.547-14.8953 18.162-17.7336 14.547 14.8954-4.948 4.8319zm-27.022 1.0854.638-11.0234-4.501 1.2793-3.309 4.9491-6.699-4.4781 14.11-21.1004 6.698 4.478-5.529 8.2683 12.079-3.8894 7.736 5.1715-13.147 3.6902-.429 17.767zm-24.329-13.5914-1.792-10.3312c-.301-1.7162-.552-3.2611-.725-4.8141-.964 2.8369-1.958 5.5485-3.111 8.5807l-1.47 3.8652-7.332-2.7881 9.025-23.72424 7.831 2.97814 1.692 10.2931c.252 1.545.443 3.4486.601 5.3394 1.028-3.0035 2.105-5.8358 3.335-9.0679l1.47-3.8652 7.331 2.7881-9.024 23.7242zm-14.868-18.7809c-1.069 8.0936-7.22 12.4595-15.067 11.4233-7.883-1.0409-12.654-6.8491-11.585-14.9427 1.065-8.0582 7.216-12.42418 15.063-11.38791 7.847 1.03618 12.653 6.84911 11.589 14.90731zm-12.486-8.1214c-2.969-.3921-5.302 1.2057-5.895 5.6942-.597 4.5239 1.241 6.6725 4.21 7.0646s5.302-1.2057 5.9-5.7296c.593-4.4886-1.245-6.6371-4.215-7.0292z"/><path d="m72.2246 122.888c0-17.48 14.1702-31.6502 31.6504-31.6502h91.271c17.48 0 31.65 14.1702 31.65 31.6502v22.837c0 10.812-8.765 19.577-19.578 19.577-10.812 0-19.577 8.765-19.577 19.578v6.447c0 14.373-11.652 26.025-26.025 26.025h-25.236c-14.373 0-26.025-11.652-26.025-26.025v-6.959c0-10.53-8.536-19.066-19.0651-19.066-10.5295 0-19.0653-8.536-19.0653-19.065zm62.4144 7.452c0 13.449-9.957 24.351-22.24 24.351-12.284 0-22.2413-10.902-22.2413-24.351 0-13.448 9.9573-24.351 22.2413-24.351 12.283 0 22.24 10.903 22.24 24.351zm51.656 24.351c12.283 0 22.241-10.902 22.241-24.351 0-13.448-9.958-24.351-22.241-24.351s-22.241 10.903-22.241 24.351c0 13.449 9.958 24.351 22.241 24.351zm-58.681 11.887c0-3.056 2.478-5.534 5.534-5.534h2.423c6.113 0 11.069 4.955 11.069 11.068v2.424c0 3.056-2.478 5.534-5.534 5.534h-2.424c-6.112 0-11.068-4.956-11.068-11.069zm35.645-5.646c-6.113 0-11.069 4.955-11.069 11.068v2.423c0 3.057 2.478 5.534 5.534 5.534h2.424c6.113 0 11.068-4.955 11.068-11.068v-2.423c0-3.057-2.478-5.534-5.534-5.534z"/></g></g></svg>

<svg width="297" height="292" viewBox="0 0 297 292" fill="none" xmlns="http://www.w3.org/2000/svg">
<path d="M19.0942 125.988L19.8041 130.795C20.8416 137.819 26.3574 143.335 33.3818 144.372L38.1883 145.082L33.3818 145.792C26.3574 146.83 20.8416 152.346 19.8041 159.37L19.0942 164.177L18.3842 159.37C17.3467 152.346 11.8309 146.83 4.80654 145.792L0 145.082L4.80654 144.372C11.8309 143.335 17.3467 137.819 18.3842 130.795L19.0942 125.988Z" fill="white"/>
<path d="M277.906 128.341L278.616 133.147C279.653 140.172 285.169 145.688 292.194 146.725L297 147.435L292.194 148.145C285.169 149.182 279.653 154.698 278.616 161.723L277.906 166.529L277.196 161.723C276.158 154.698 270.643 149.182 263.618 148.145L258.812 147.435L263.618 146.725C270.643 145.688 276.158 140.172 277.196 133.147L277.906 128.341Z" fill="white"/>
<path fill-rule="evenodd" clip-rule="evenodd" d="M131.678 3.95282L143.993 2.43768L147.093 27.6305L139.308 28.5883L138.428 21.4409C138.006 18.0088 137.671 14.9968 137.421 11.7949C137.339 12.8825 137.226 14.0099 137.064 15.3228L135.521 29.0542L129.01 29.8552L124.113 16.9163C123.682 15.7481 123.308 14.7525 122.973 13.7879C123.498 16.8842 123.895 19.8166 124.308 23.178L125.188 30.3254L117.403 31.2833L114.303 6.09043L126.618 4.57532L129.775 13.885C130.109 14.8496 130.408 15.8186 130.746 16.8185C130.797 15.7706 130.852 14.7581 130.943 13.7413L131.678 3.95282ZM102.187 23.0222C105.775 30.6321 103.794 36.2954 96.2475 39.8527L85.5086 44.915L74.6835 21.9564L85.5192 16.8484C93.001 13.3215 98.5987 15.4123 102.187 23.0222ZM87.9261 23.1234L84.8302 24.5827L89.9386 35.4172L93.0346 33.9578C96.0337 32.544 96.5105 30.5457 94.6404 26.5795C92.7703 22.6134 90.9252 21.7095 87.9261 23.1234ZM75.6466 35.9871C80.7212 42.3825 79.5831 49.8385 73.3824 54.7575C67.1539 59.6986 59.6615 59.0894 54.5869 52.694C49.5344 46.3266 50.6725 38.8705 56.8731 33.9515C63.0738 29.0325 70.5941 29.6196 75.6466 35.9871ZM61.1279 39.3137C58.7817 41.1749 58.3083 43.9624 61.1226 47.5091C63.9591 51.0838 66.7815 51.2567 69.1277 49.3954C71.4739 47.5342 71.9473 44.7467 69.1108 41.172C66.2965 37.6253 63.474 37.4524 61.1279 39.3137ZM53.6276 74.639C48.7264 80.8987 41.2991 82.0569 34.8702 77.0245C28.4695 72.0139 27.8336 64.4985 32.7129 58.2668C37.5921 52.0353 45.0414 50.8489 51.4421 55.8594C57.871 60.8919 58.5068 68.4073 53.6276 74.639ZM38.103 62.4862C36.2568 64.8441 36.4479 67.665 40.0132 70.456C43.6067 73.2689 46.3913 72.7775 48.2375 70.4196C50.0837 68.0617 49.8925 65.2408 46.2992 62.4279C42.7338 59.6369 39.9492 60.1283 38.103 62.4862ZM25.0258 87.3774C23.335 87.3911 21.9888 88.5408 21.2205 90.2279C19.9056 93.1155 20.8924 95.68 24.9159 97.5118C29.1342 99.4323 31.7048 98.6049 33.1527 95.4253C34.2165 93.0893 33.8664 91.3631 32.3153 89.9518L30.3651 94.2345L25.4329 91.9891L30.6927 80.4389C31.5306 80.6637 32.3389 80.9533 33.1176 81.3078C39.9317 84.4101 42.3733 91.4365 39.1229 98.5743C35.9168 105.615 28.8894 108.487 21.4587 105.104C14.093 101.75 11.548 94.9512 15.02 87.3267C17.9749 80.8378 22.9956 78.5014 28.5717 79.5907L25.0258 87.3774ZM259.538 91.5742L269.236 95.3209C271.184 96.0901 273.165 96.8464 275.184 97.7022C274.384 95.7565 273.584 93.8109 272.818 91.8522L271.09 87.4368L277.531 84.9163L285.457 105.167L279.813 107.376L269.891 103.449C267.99 102.7 266.029 101.897 264.03 100.995C264.856 103.007 265.668 104.986 266.461 107.011L268.423 112.024L261.882 114.584L253.761 93.835L259.538 91.5742ZM38.5786 202.347L28.7898 198.844C26.8237 198.124 24.8248 197.418 22.7845 196.613C23.6327 198.538 24.481 200.463 25.2964 202.402L27.1345 206.772L20.7584 209.453L12.3281 189.407L17.9154 187.058L27.9323 190.736C29.8517 191.437 31.8316 192.19 33.8529 193.042C32.977 191.051 32.115 189.093 31.2719 187.088L29.1851 182.126L35.6597 179.404L44.2972 199.943L38.5786 202.347ZM53.6741 213.95L45.704 219.411L37.7327 235.592L32.8148 228.417L34.5345 225.25C35.5583 223.339 36.5156 221.645 37.5427 219.991C35.6692 220.41 33.8048 220.78 31.7127 221.133L28.2193 221.712L23.3618 214.625L41.1489 212.766L49.119 207.304L53.6741 213.95ZM55.2623 243.466L57.0044 241.679L48.5539 233.442L53.2078 228.668L61.6582 236.905L63.3257 235.195L54.1859 226.286L59.0139 221.334L73.9236 235.866L56.2041 254.042L41.2944 239.51L46.1225 234.557L55.2623 243.466ZM82.2511 241.715L81.8867 252.751L86.3547 251.36L89.5404 246.331L96.3479 250.641L82.7656 272.085L75.9581 267.775L81.2804 259.372L69.3013 263.559L61.4397 258.581L74.4911 254.566L74.4797 236.794L82.2511 241.715ZM106.909 254.696L108.959 264.979C109.302 266.688 109.592 268.226 109.803 269.774C110.697 266.914 111.622 264.178 112.699 261.118L114.072 257.217L121.471 259.821L113.043 283.764L105.14 280.982L103.191 270.735C102.901 269.197 102.662 267.298 102.456 265.412C101.504 268.44 100.497 271.299 99.3492 274.561L97.9762 278.461L90.5772 275.858L99.0053 251.915L106.909 254.696ZM122.241 273.098C123.109 264.98 129.149 260.463 137.02 261.304C144.925 262.149 149.839 267.836 148.972 275.954C148.108 284.036 142.067 288.553 134.197 287.712C126.327 286.871 121.378 281.18 122.241 273.098ZM134.925 280.906C137.903 281.224 140.195 279.569 140.676 275.067C141.161 270.53 139.27 268.428 136.292 268.11C133.314 267.792 131.022 269.447 130.537 273.984C130.056 278.486 131.947 280.588 134.925 280.906ZM160.335 262.33L161.392 269.453C161.899 272.874 162.308 275.877 162.638 279.071C162.692 277.982 162.777 276.852 162.906 275.536L164.109 261.77L170.598 260.808L175.814 273.621C176.274 274.779 176.673 275.765 177.031 276.721C176.43 273.638 175.96 270.717 175.463 267.367L174.407 260.243L182.166 259.093L185.89 284.201L173.616 286.02L170.229 276.792C169.871 275.836 169.548 274.875 169.185 273.884C169.16 274.932 169.131 275.946 169.065 276.965L168.573 286.768L156.3 288.588L152.576 263.481L160.335 262.33ZM197.584 266.969C193.807 259.451 195.645 253.74 203.101 249.995L213.71 244.665L225.106 267.347L214.401 272.724C207.01 276.437 201.361 274.487 197.584 266.969ZM211.838 266.511L214.896 264.975L209.519 254.271L206.46 255.808C203.497 257.296 203.07 259.306 205.039 263.224C207.008 267.142 208.875 267.999 211.838 266.511ZM223.789 253.346C218.557 247.079 219.511 239.597 225.588 234.526C231.692 229.433 239.197 229.857 244.428 236.124C249.636 242.365 248.683 249.846 242.606 254.917C236.529 259.988 228.997 259.587 223.789 253.346ZM238.22 249.662C240.519 247.743 240.924 244.945 238.023 241.469C235.099 237.966 232.273 237.863 229.974 239.781C227.674 241.7 227.27 244.498 230.194 248.002C233.095 251.478 235.921 251.581 238.22 249.662ZM244.845 214.163C249.59 207.785 256.986 206.443 263.537 211.315C270.06 216.166 270.882 223.663 266.158 230.013C261.434 236.364 254.017 237.734 247.494 232.883C240.943 228.011 240.121 220.514 244.845 214.163ZM260.665 225.929C262.452 223.526 262.192 220.711 258.558 218.009C254.897 215.285 252.125 215.845 250.338 218.248C248.55 220.651 248.811 223.466 252.473 226.19C256.106 228.892 258.878 228.331 260.665 225.929ZM273.122 200.718C274.812 200.662 276.129 199.479 276.855 197.773C278.098 194.853 277.047 192.314 272.979 190.584C268.714 188.769 266.165 189.66 264.797 192.875C263.792 195.237 264.185 196.954 265.771 198.326L267.614 193.996L272.6 196.117L267.631 207.795C266.787 207.592 265.972 207.322 265.185 206.987C258.295 204.056 255.679 197.093 258.75 189.876C261.779 182.758 268.733 179.711 276.246 182.908C283.693 186.076 286.407 192.81 283.126 200.518C280.334 207.079 275.374 209.54 269.772 208.59L273.122 200.718ZM244.735 79.5988L252.838 74.337L261.209 58.3598L265.947 65.6549L264.149 68.7777C263.078 70.6633 262.079 72.3323 261.011 73.9608C262.895 73.5879 264.768 73.2644 266.868 72.9634L270.374 72.4717L275.054 79.6772L257.227 81.094L249.123 86.3558L244.735 79.5988ZM243.875 50.0502L242.09 51.7937L250.335 60.2361L245.565 64.8936L237.32 56.4512L235.611 58.12L244.528 67.251L239.579 72.0829L225.032 57.1876L243.194 39.454L257.741 54.3494L252.793 59.1813L243.875 50.0502ZM216.853 51.1356L217.491 40.1122L212.99 41.3915L209.681 46.3406L202.982 41.8625L217.092 20.7621L223.79 25.2401L218.261 33.5084L230.34 29.619L238.076 34.7905L224.929 38.4807L224.5 56.2477L216.853 51.1356ZM192.524 37.5442L190.732 27.213C190.431 25.4968 190.18 23.9519 190.007 22.3989C189.043 25.2358 188.049 27.9474 186.896 30.9796L185.426 34.8448L178.094 32.0567L187.119 8.33246L194.95 11.3106L196.642 21.6037C196.894 23.1487 197.085 25.0523 197.243 26.9431C198.271 23.9396 199.348 21.1073 200.578 17.8752L202.048 14.01L209.379 16.7981L200.355 40.5223L192.524 37.5442ZM177.656 18.7633C176.587 26.8569 170.436 31.2228 162.589 30.1866C154.706 29.1457 149.935 23.3375 151.004 15.2439C152.069 7.1857 158.22 2.81972 166.067 3.85599C173.914 4.89217 178.72 10.7051 177.656 18.7633ZM165.17 10.6419C162.201 10.2498 159.868 11.8476 159.275 16.3361C158.678 20.86 160.516 23.0086 163.485 23.4007C166.454 23.7928 168.787 22.195 169.385 17.6711C169.978 13.1825 168.14 11.034 165.17 10.6419Z" fill="white"/>
<path fill-rule="evenodd" clip-rule="evenodd" d="M72.2246 122.888C72.2246 105.408 86.3948 91.2378 103.875 91.2378H195.146C212.626 91.2378 226.796 105.408 226.796 122.888V145.725C226.796 156.537 218.031 165.302 207.218 165.302C196.406 165.302 187.641 174.067 187.641 184.88V191.327C187.641 205.7 175.989 217.352 161.616 217.352H136.38C122.007 217.352 110.355 205.7 110.355 191.327V184.368C110.355 173.838 101.819 165.302 91.2899 165.302C80.7604 165.302 72.2246 156.766 72.2246 146.237V122.888ZM134.639 130.34C134.639 143.789 124.682 154.691 112.399 154.691C100.115 154.691 90.1577 143.789 90.1577 130.34C90.1577 116.892 100.115 105.989 112.399 105.989C124.682 105.989 134.639 116.892 134.639 130.34ZM186.295 154.691C198.578 154.691 208.536 143.789 208.536 130.34C208.536 116.892 198.578 105.989 186.295 105.989C174.012 105.989 164.054 116.892 164.054 130.34C164.054 143.789 174.012 154.691 186.295 154.691ZM127.614 166.578C127.614 163.522 130.092 161.044 133.148 161.044H135.571C141.684 161.044 146.64 165.999 146.64 172.112V174.536C146.64 177.592 144.162 180.07 141.106 180.07H138.682C132.57 180.07 127.614 175.114 127.614 169.001V166.578ZM163.259 160.932C157.146 160.932 152.19 165.887 152.19 172V174.423C152.19 177.48 154.668 179.957 157.724 179.957H160.148C166.261 179.957 171.216 175.002 171.216 168.889V166.466C171.216 163.409 168.738 160.932 165.682 160.932H163.259Z" fill="white"/>
</svg>
